X:103
T: Black Joke with variations
N: O'Farrell's Pocket Companion v.2 (Sky ed. p.58-9)
N: "Irish"
M: 6/8
L: 1/8
R: jig
Q: 320
K: G
G|DEG GFG|ABA AGA|BcB BAG|AcB AGF|
G3 E3|DEF G2 :|
P:2
c|BGB d2d|ege d2c|BGB def|gfe dcB|c2g B2g|
ABA AGA|BcB BAG|AcB AGF| GAB EFG|DEF G2 :|
P:3
G|DGB DGB|DFA DFA|GBd GBd|DFA DFA|G3 E3|
DEF G2 :|
P:4
c|Bge dBG|fag fed|gbg dgb|a f/g/a/f/ dfa|g3 e3|def g2 :|
P:5
e|ddB dBG|eec ecA|ddB dBG|e/f/ge dBG|
ceg dcB|ABA AGA|BcB BAG|AcB AGF|GAB EFG|
DEF G2 ||
